**kern
*part1
*staff1
*clefG2
*k[b-e-a-]
*M2/4
*>A
=1-
8gL
8a-J
16bnLL
16cc
16b
16a-JJ
=2
8gL
8g
8g
8gJ
=3
8bnL
8a-
8g
8fJ
=4
(<16gLL
16a-J)
8fJ
8fL
8fJ
=5
8gL
8a-J
8bnL
8ccJ
=6
4bn
12a-L
12g
12fJ
=7
2g
=8
2gg
=9:|!
2g
=10
4g
4r
=11!|:
*>B
*k[b-e-]
2cc
=12
2cc
=13
8ccL
(>16ddL
16ccJJ)
8b-L
(>16ccL
16b-JJ)
=14
4.a
8a
=15
8aL
8f
8g
8aJ
=16
4.b-
8b-
=17
4dd
4cc
=18
4bn
12a-XL
12g
12fJ
=19
8gL
8a-X
8bn
8ccJ
=20
4bn
12a-XL
12g
12fJ
=21
2g
=22
2gg
=23:|!
2g
=24
4g
4r
==
*-
!!!RDF**kern: > = above
!!!RDF**kern: < = below
